default-svg/0038-8.svg

<svg xmlns="http://www.w3.org/2000/svg" viewBox="0 0 24 24"><path d="M11 13h2v2h-2m0-6h2v2h-2m0 6h2a2 2 0 0 0 2-2v-1.5a1.5 1.5 0 0 0-1.5-1.5 1.5 1.5 0 0 0 1.5-1.5V9a2 2 0 0 0-2-2h-2a2 2 0 0 0-2 2v1.5a1.5 1.5 0 0 0 1.5 1.5A1.5 1.5 0 0 0 9 13.5V15a2 2 0 0 0 2 2"/></svg>

<svg xmlns="http://www.w3.org/2000/svg" viewBox="0 0 24 24"><path d="M11 13H13V15H11ZM11 9H13V11H11ZM11 17H13A2 2 0 0 0 15 15V13.5A1.5 1.5 0 0 0 13.5 12A1.5 1.5 0 0 0 15 10.5V9A2 2 0 0 0 13 7H11A2 2 0 0 0 9 9V10.5A1.5 1.5 0 0 0 10.5 12A1.5 1.5 0 0 0 9 13.5V15A2 2 0 0 0 11 17"/></svg>
